X:21
T:Donnybrook Fair
M:6/8
L:1/8
R:jig
K:G
GFG AGA | Bee dBA | BAB GAB | AGE GED |
GFG AGA | Bee dBA | BAB GAB| AGF G3 :|
gfe fed | ege dBA | Bee dBA | Bee e2f |
gfe fed | ege dBA | BAB GAB | AGF G2f |
gfe fed | efe dBA | Bee dBA | Bee e2f |
gfg aga | bge dBA | BAB GAB | AGF G3 |]
